!!!COM: Palestrina, Giovanni Perluigi da
!!!OPR: Missa Laudate Dominum
!!!OTL: Gloria
**kern	**kern	**kern	**kern	**kern	**kern	**kern	**kern
*Ibass	*Itenor	*Icalto	*Icant	*Ibass	*Itenor	*Icalto	*Icant
!Bassus	!Tenor	!Altus	!Cantus	!Bassus	!Tenor	!Altus	!Cantus
*clefF4	*clefGv2	*clefG2	*clefG2	*clefF4	*clefGv2	*clefG2	*clefG2
*k[b-]	*k[b-]	*k[b-]	*k[b-]	*k[b-]	*k[b-]	*k[b-]	*k[b-]
*F:ion	*F:ion	*F:ion	*F:ion	*F:ion	*F:ion	*F:ion	*F:ion
*M4/2	*M4/2	*M4/2	*M4/2	*M4/2	*M4/2	*M4/2	*M4/2
=1	=1	=1	=1	=1	=1	=1	=1
0r	0r	0r	0r	0r	0r	1r	1f
.	.	.	.	.	.	1c	1cc
=2	=2	=2	=2	=2	=2	=2	=2
0r	0r	0r	0r	0r	0r	1f	1cc
.	.	.	.	.	.	1f	1a
=3	=3	=3	=3	=3	=3	=3	=3
0r	0r	0r	0r	0r	0r	2d	1.dd
.	.	.	.	.	.	4B-	.
.	.	.	.	.	.	4c	.
.	.	.	.	.	.	4d	.
.	.	.	.	.	.	4e	.
.	.	.	.	.	.	[2f	4cc
.	.	.	.	.	.	.	4b-
=4	=4	=4	=4	=4	=4	=4	=4
0r	0r	0r	0r	0r	1r	2f]	2a
.	.	.	.	.	.	2e	2g
.	.	.	.	.	1F	4d	2a
.	.	.	.	.	.	4c	.
.	.	.	.	.	.	[2f	2a
=5	=5	=5	=5	=5	=5	=5	=5
0r	0r	0r	0r	1C	1c	2f]	2g
.	.	.	.	.	.	2e	2g
.	.	.	.	1F	1c	1f	2a
.	.	.	.	.	.	.	[2cc
=6	=6	=6	=6	=6	=6	=6	=6
0r	0r	0r	0r	1F	1A	2r	4cc]
.	.	.	.	.	.	.	4b-
.	.	.	.	.	.	2F	4a
.	.	.	.	.	.	.	4g
.	.	.	.	2D	[1d	2A	4f
.	.	.	.	.	.	.	4e
.	.	.	.	4BB-	.	[2B-	4d
.	.	.	.	4C	.	.	4e
=7	=7	=7	=7	=7	=7	=7	=7
0r	0r	0r	0r	4D	2d]	2B-]	4f
.	.	.	.	4E	.	.	4g
.	.	.	.	2.F	4c	2A	2a
.	.	.	.	.	4B-	.	.
.	.	.	.	.	2A	[1c	2f
.	.	.	.	8E	.	.	.
.	.	.	.	8D	.	.	.
.	.	.	.	2E	2G	.	[2g
=8	=8	=8	=8	=8	=8	=8	=8
0r	0r	0r	0r	1F	2.A	0c]	4g]
.	.	.	.	.	.	.	4f
.	.	.	.	.	.	.	1f
.	.	.	.	.	4F	.	.
.	.	.	.	1C	1G	.	.
.	.	.	.	.	.	.	2e
=9	=9	=9	=9	=9	=9	=9	=9
1r	2r	1r	1r	0FF	0F	0A	4f
.	.	.	.	.	.	.	4g
.	2F	.	.	.	.	.	4a
.	.	.	.	.	.	.	4b-
1F	4A	1c	1f	.	.	.	1cc
.	4G	.	.	.	.	.	.
.	4A	.	.	.	.	.	.
.	4B-	.	.	.	.	.	.
=10	=10	=10	=10	=10	=10	=10	=10
1F	1c	1f	1a	0r	1r	0r	0r
1BB-	1d	1f	1b-	.	2r	.	.
.	.	.	.	.	[2F	.	.
=11	=11	=11	=11	=11	=11	=11	=11
0FF	0c	0f	0a	2r	2F]	2r	2r
.	.	.	.	1F	2F	1c	1f
.	.	.	.	.	4A	.	.
.	.	.	.	.	4G	.	.
.	.	.	.	2F	4A	2c	2f
.	.	.	.	.	4B-	.	.
=12	=12	=12	=12	=12	=12	=12	=12
0r	0r	0r	0r	2F	2c	2f	2a
.	.	.	.	2F	2c	2f	2a
.	.	.	.	1BB-	1d	1f	1b-
=13	=13	=13	=13	=13	=13	=13	=13
2r	2r	2r	2r	0F	2.c	0f	2.a
1FF	1c	1f	1a	.	.	.	.
.	.	.	.	.	4B-	.	4b-
.	.	.	.	.	1A	.	1cc
2FF	2c	2f	2a	.	.	.	.
=14	=14	=14	=14	=14	=14	=14	=14
1BB-	4d	4f	4b-	0r	0r	0r	0r
.	4c	4e	4a	.	.	.	.
.	4B-	2d	4g	.	.	.	.
.	4A	.	4f	.	.	.	.
1C	4G	1c	4e	.	.	.	.
.	4F	.	4f	.	.	.	.
.	2E	.	[2g	.	.	.	.
=15	=15	=15	=15	=15	=15	=15	=15
2.AA	1A	[0c	2g]	1r	1r	1r	1r
.	.	.	1f	.	.	.	.
4BB-	.	.	.	.	.	.	.
[1C	2.G	.	.	2r	2r	2r	2r
.	.	.	4e	2C	2c	2e	2g
.	4F	.	4d	.	.	.	.
=16	=16	=16	=16	=16	=16	=16	=16
1C]	1G	0c]	1e	2C	2c	2e	2g
.	.	.	.	2C	2c	2e	2g
1FF	1F	.	1f	[1F	2.A	1c	4a
.	.	.	.	.	.	.	4b-
.	.	.	.	.	.	.	4cc
.	.	.	.	.	4B-	.	4b-
=17	=17	=17	=17	=17	=17	=17	=17
0r	0r	0r	0r	1F]	2c	4f	4a
.	.	.	.	.	.	4e	4g
.	.	.	.	.	2.d	4d	4f
.	.	.	.	.	.	4c	4e
.	.	.	.	1G	.	4B-	1d
.	.	.	.	.	4c	4G	.
.	.	.	.	.	4B-	[2g	.
.	.	.	.	.	4A	.	.
=18	=18	=18	=18	=18	=18	=18	=18
0r	0r	0r	0r	2.E	2G	4g]	0g
.	.	.	.	.	.	4f	.
.	.	.	.	.	1c	2e	.
.	.	.	.	4F	.	.	.
.	.	.	.	1G	.	1d	.
.	.	.	.	.	2B	.	.
=19	=19	=19	=19	=19	=19	=19	=19
2r	2r	2r	2r	1C	1c	1e	1g
1C	1c	1e	1g	.	.	.	.
.	.	.	.	1r	1r	1r	1r
2C	2c	2e	2g	.	.	.	.
=20	=20	=20	=20	=20	=20	=20	=20
0F	0c	0f	0a	2r	2r	2r	2r
.	.	.	.	1FF	1A	1c	1f
.	.	.	.	2FF	2A	2c	2f
=21	=21	=21	=21	=21	=21	=21	=21
2r	2r	2r	2r	0BB-	0d	0B-	0f
2.BB-	2.d	2.f	2.b-	.	.	.	.
4BB-	4B-	4d	4b-	.	.	.	.
2BB-	2B-	2d	2b-	.	.	.	.
=22	=22	=22	=22	=22	=22	=22	=22
0F	2.c	1f	0a	2r	2r	2r	2r
.	.	.	.	2.FF	2.A	2.c	2.f
.	4B-	.	.	.	.	.	.
.	1A	2.c	.	.	.	.	.
.	.	.	.	4FF	4A	4c	4f
.	.	.	.	2FF	2F	2c	2f
.	.	4d	.	.	.	.	.
=23	=23	=23	=23	=23	=23	=23	=23
1C	1c	1e	1g	0C	4E	4c	2g
.	.	.	.	.	4F	4d	.
.	.	.	.	.	4G	4e	4c
.	.	.	.	.	4F	4f	4d
1r	1r	1r	1r	.	4E	2g	4e
.	.	.	.	.	4D	.	4f
.	.	.	.	.	2E	2c	4g
.	.	.	.	.	.	.	4a
=24	=24	=24	=24	=24	=24	=24	=24
2r	2r	2r	2r	1BB-	1F	1d	1b-
1BB-	1d	1f	1b-	.	.	.	.
.	.	.	.	1r	1r	1r	1r
2AA	2c	2f	2cc	.	.	.	.
=25	=25	=25	=25	=25	=25	=25	=25
2BB-	2B-	2f	2dd	0r	0r	0r	0r
2F	2A	2f	2cc	.	.	.	.
[1BB-	[1B-	[1f	[1dd	.	.	.	.
=26	=26	=26	=26	=26	=26	=26	=26
2BB-]	2B-]	2f]	2dd]	0r	0r	0r	0r
2F	2A	2f	2cc	.	.	.	.
1F	1A	2.f	2cc	.	.	.	.
.	.	.	[2dd	.	.	.	.
.	.	4e	.	.	.	.	.
=27	=27	=27	=27	=27	=27	=27	=27
2.G	2.B-	1d	4dd]	0r	0r	0r	0r
.	.	.	4cc	.	.	.	.
.	.	.	4b-	.	.	.	.
4F	8c	.	4a	.	.	.	.
.	8d	.	.	.	.	.	.
4E-	1e-	2r	2g	.	.	.	.
4D	.	.	.	.	.	.	.
2C	.	[2g	[2cc	.	.	.	.
=28	=28	=28	=28	=28	=28	=28	=28
1G	2d	4g]	4cc]	0r	0r	0r	0r
.	.	4f	4b-	.	.	.	.
.	2B-	4d	1b-	.	.	.	.
.	.	4e	.	.	.	.	.
1F	1c	1f	.	.	.	.	.
.	.	.	2a	.	.	.	.
=29	=29	=29	=29	=29	=29	=29	=29
1BB-	1B-	1d	1b-	2r	2r	2r	1r
.	.	.	.	2.BB-	2.d	2.B-	.
1r	1r	1r	1r	.	.	.	2r
.	.	.	.	4BB-	4d	4B-	.
.	.	.	.	2BB-	2d	2B-	[2f
=30	=30	=30	=30	=30	=30	=30	=30
0r	0r	0r	0r	1F	0c	1A	4f]
.	.	.	.	.	.	.	4f
.	.	.	.	.	.	.	2f
.	.	.	.	1C	.	2G	1e
.	.	.	.	.	.	[2g	.
=31	=31	=31	=31	=31	=31	=31	=31
0r	0r	0r	0r	4GG	1B-	2g]	2d
.	.	.	.	4AA	.	.	.
.	.	.	.	4BB-	.	2f	1dd
.	.	.	.	4C	.	.	.
.	.	.	.	4D	2.A	1f	.
.	.	.	.	4E	.	.	.
.	.	.	.	4F	.	.	[2cc
.	.	.	.	4G	4B-	.	.
=32	=32	=32	=32	=32	=32	=32	=32
0r	0r	0r	0r	2A	2c	2e	4cc]
.	.	.	.	.	.	.	4b-
.	.	.	.	2F	2c	1f	1a
.	.	.	.	1B-	[1d	.	.
.	.	.	.	.	.	4e	2g
.	.	.	.	.	.	4d	.
=33	=33	=33	=33	=33	=33	=33	=33
2r	2r	2r	1r	1A	2d]	1e	1a
1AA	2A	1e	.	.	2c#	.	.
.	1c#	.	[1a	1r	1r	1r	1r
2AA	.	2e	.	.	.	.	.
=34	=34	=34	=34	=34	=34	=34	=34
1D	1d	1f#	2a]	0r	0r	0r	0r
.	.	.	2a	.	.	.	.
4GG	[1d	1g	1b-	.	.	.	.
4AA	.	.	.	.	.	.	.
4BB-	.	.	.	.	.	.	.
4C	.	.	.	.	.	.	.
=35	=35	=35	=35	=35	=35	=35	=35
4D	2d]	2.f	1.a	0r	0r	0r	0r
4E	.	.	.	.	.	.	.
1F	4c	.	.	.	.	.	.
.	4B-	8e	.	.	.	.	.
.	.	8d	.	.	.	.	.
.	4A	1c	.	.	.	.	.
.	4F	.	.	.	.	.	.
2E	2G	.	2g	.	.	.	.
=36	=36	=36	=36	=36	=36	=36	=36
2D	2A	2d	2f	1r	0r	1r	0r
2C	1c	2g	2e	.	.	.	.
1G	.	[1g	[1d	2r	.	2r	.
.	4B	.	.	[2G	.	[2d	.
.	4A	.	.	.	.	.	.
=37	=37	=37	=37	=37	=37	=37	=37
1GG	1B	1g]	1d]	4G]	1r	4d]	2r
.	.	.	.	4G	.	4d	.
.	.	.	.	2G	.	2d	2.g
1r	1r	1r	1r	2C	2r	2e	.
.	.	.	.	.	.	.	4g
.	.	.	.	2C	[2c	2e	2g
=38	=38	=38	=38	=38	=38	=38	=38
0r	0r	0r	0r	1F	4c]	1f	2a
.	.	.	.	.	4c	.	.
.	.	.	.	.	2c	.	2a
.	.	.	.	2BB-	2d	1f	[1b-
.	.	.	.	4BB-	2d	.	.
.	.	.	.	4C	.	.	.
=39	=39	=39	=39	=39	=39	=39	=39
0r	0r	0r	0r	4D	2d	1.f	2b-]
.	.	.	.	4E	.	.	.
.	.	.	.	1F	2c	.	2a
.	.	.	.	.	2c	.	2a
.	.	.	.	2D	2F	2f	2b-
=40	=40	=40	=40	=40	=40	=40	=40
2r	2r	2r	2r	0C	0G	0e	0cc
2.C	2.c	2.e	2.g	.	.	.	.
4C	4c	4e	4g	.	.	.	.
2C	2c	2e	2g	.	.	.	.
=41	=41	=41	=41	=41	=41	=41	=41
2GG	2B	2d	2g	0r	0r	0r	0r
2GG	2B	2d	2g	.	.	.	.
1C	[1c	1e	1g	.	.	.	.
=42	=42	=42	=42	=42	=42	=42	=42
2FF	2c]	2f	2a	0r	0r	0r	0r
4FF	2c	1f	1a	.	.	.	.
4GG	.	.	.	.	.	.	.
4AA	1c	.	.	.	.	.	.
4BB-	.	.	.	.	.	.	.
[2C	.	4e	4g	.	.	.	.
.	.	4d	4f	.	.	.	.
=43	=43	=43	=43	=43	=43	=43	=43
2C]	1c	2e	2g	0r	0r	0r	0r
2FF	.	2f	2a	.	.	.	.
[1BB-	[1d	[1f	[1b-	.	.	.	.
=44	=44	=44	=44	=44	=44	=44	=44
1BB-]	1d]	1f]	1b-]	0BB-	0d	0f	0b-
1r	1r	2r	1r	.	.	.	.
.	.	[2f	.	.	.	.	.
=45	=45	=45	=45	=45	=45	=45	=45
0F	1A	2f]	0cc	0FF	0c	0f	0a
.	.	4F	.	.	.	.	.
.	.	4G	.	.	.	.	.
.	1F	4A	.	.	.	.	.
.	.	4B-	.	.	.	.	.
.	.	4c	.	.	.	.	.
.	.	4d	.	.	.	.	.
=46	=46	=46	=46	=46	=46	=46	=46
0C	1.G	4e	0cc	0C	1c	0e	1g
.	.	4f	.	.	.	.	.
.	.	2g	.	.	.	.	.
.	.	4e	.	.	1G	.	[1cc
.	.	4f	.	.	.	.	.
.	4G	[2g	.	.	.	.	.
.	4A	.	.	.	.	.	.
=47	=47	=47	=47	=47	=47	=47	=47
0G	4B	2g]	1dd	0GG	0G	0d	2cc]
.	4c	.	.	.	.	.	.
.	1d	4f	.	.	.	.	4b
.	.	4e	.	.	.	.	4a
.	.	4d	1g	.	.	.	1b
.	.	4c	.	.	.	.	.
.	[2G	2d	.	.	.	.	.
=48	=48	=48	=48	=48	=48	=48	=48
0C	4G]	2e	0g	0r	2r	2r	2cc
.	4F	.	.	.	.	.	.
.	4E	2c	.	.	2.c	2.e	2.g
.	4D	.	.	.	.	.	.
.	1E	1c	.	.	.	.	.
.	.	.	.	.	4c	4e	4g
.	.	.	.	.	2c	2e	2g
=49	=49	=49	=49	=49	=49	=49	=49
0r	0r	0r	0r	2r	2.G	2.g	0b-
.	.	.	.	2.G	.	.	.
.	.	.	.	.	4A	8f	.
.	.	.	.	.	.	8e	.
.	.	.	.	.	2.B-	2.d	.
.	.	.	.	4G	.	.	.
.	.	.	.	2G	.	.	.
.	.	.	.	.	4c	4e	.
=50	=50	=50	=50	=50	=50	=50	=50
0r	0r	0r	0r	2.D	1d	0f	[0a
.	.	.	.	4E	.	.	.
.	.	.	.	2.F	2A	.	.
.	.	.	.	.	[2d	.	.
.	.	.	.	4G	.	.	.
=51	=51	=51	=51	=51	=51	=51	=51
0r	0r	0r	0r	1A	2d]	1e	1a]
.	.	.	.	.	2c#	.	.
.	.	.	.	1D	2d	2r	[1f
.	.	.	.	.	4D	[2d	.
.	.	.	.	.	4E	.	.
=52	=52	=52	=52	=52	=52	=52	=52
0r	0r	0r	0r	0r	4F	2d]	2f]
.	.	.	.	.	4G	.	.
.	.	.	.	.	2A	2c#	2e
.	.	.	.	.	2D	4d	4f
.	.	.	.	.	.	4c	4e
.	.	.	.	.	2G	4B-	4d
.	.	.	.	.	.	4c	4e
=53	=53	=53	=53	=53	=53	=53	=53
0r	0r	0r	0r	1.D	2.F	4d	4f
.	.	.	.	.	.	4e	4g
.	.	.	.	.	.	1f	2a
.	.	.	.	.	4G	.	.
.	.	.	.	.	1A	.	2d
.	.	.	.	2C#	.	2e	2e
=54	=54	=54	=54	=54	=54	=54	=54
0r	0r	0r	0r	4D	2A	2r	0f
.	.	.	.	4C	.	.	.
.	.	.	.	4BB-	1B-	1d	.
.	.	.	.	4C	.	.	.
.	.	.	.	4D	.	.	.
.	.	.	.	4E	.	.	.
.	.	.	.	2F	2A	2c	.
=55	=55	=55	=55	=55	=55	=55	=55
0r	0r	0r	0r	2BB-	2B-	2d	2r
.	.	.	.	2E-	4G	4B-	1b-
.	.	.	.	.	4A	4c	.
.	.	.	.	1D	4B-	4d	.
.	.	.	.	.	4c	4e	.
.	.	.	.	.	2d	2f	2a
=56	=56	=56	=56	=56	=56	=56	=56
0r	0r	0r	0r	0r	2G	1d	2b-
.	.	.	.	.	4D	.	4f
.	.	.	.	.	4E	.	4g
.	.	.	.	.	4F	2.c	4a
.	.	.	.	.	4G	.	4b-
.	.	.	.	.	4A	.	[2cc
.	.	.	.	.	4B-	4d	.
=57	=57	=57	=57	=57	=57	=57	=57
0r	0r	0r	0r	0r	2c	2e	4cc]
.	.	.	.	.	.	.	4b-
.	.	.	.	.	2d	1f	2a
.	.	.	.	.	2B-	.	1g
.	.	.	.	.	2c	2e	.
=58	=58	=58	=58	=58	=58	=58	=58
0r	0r	0r	0r	2r	4F	1f	1.a
.	.	.	.	.	4G	.	.
.	.	.	.	1F	4A	.	.
.	.	.	.	.	4B-	.	.
.	.	.	.	.	1c	2F	.
.	.	.	.	2E	.	2G	2g
=59	=59	=59	=59	=59	=59	=59	=59
0r	0r	0r	0r	2F	2r	1A	2f
.	.	.	.	4C	1c	.	4e
.	.	.	.	4D	.	.	4f
.	.	.	.	4E	.	[1G	4g
.	.	.	.	4F	.	.	4a
.	.	.	.	2G	2B-	.	[2g
=60	=60	=60	=60	=60	=60	=60	=60
0r	1r	0r	0r	2E	4c	2G]	2g]
.	.	.	.	.	4B-	.	.
.	.	.	.	2F	2A	2.c	1f
.	2r	.	.	1C	2G	.	.
.	.	.	.	.	.	4B-	.
.	[2c	.	.	.	2c	2G	2e
=61	=61	=61	=61	=61	=61	=61	=61
2r	4c]	1.c	2r	1FF	1c	1A	1f
.	4B-	.	.	.	.	.	.
1F	4A	.	1a	.	.	.	.
.	4G	.	.	.	.	.	.
.	2F	.	.	1r	2r	1r	1r
2E	2G	2c	2g	.	[2c	.	.
=62	=62	=62	=62	=62	=62	=62	=62
2F	1A	0c	4f	2r	4c]	2r	2r
.	.	.	4g	.	4B-	.	.
4FF	.	.	4a	1F	4A	1c	1a
4GG	.	.	4b-	.	4G	.	.
4AA	2r	.	1cc	.	2F	.	.
4FF	.	.	.	.	.	.	.
2C	[2c	.	.	2E	2G	2c	2g
=63	=63	=63	=63	=63	=63	=63	=63
2FF	4c]	2r	2r	2F	2A	2c	4f
.	4B-	.	.	.	.	.	4g
1F	4A	1c	1a	4FF	1A	2.c	4a
.	4G	.	.	4GG	.	.	4b-
.	2F	.	.	4AA	.	.	1cc
.	.	.	.	4FF	.	4d	.
2E	2G	2c	2g	2C	2G	2e	.
=64	=64	=64	=64	=64	=64	=64	=64
1F	1A	1c	1f	1FF	2r	2c	0cc
.	.	.	.	.	2.c	1f	.
1C	1G	1c	1g	1C	.	.	.
.	.	.	.	.	4c	.	.
.	.	.	.	.	2c	2e	.
=65	=65	=65	=65	=65	=65	=65	=65
0F	0F	0A	0a	0FF	1A	0f	0cc
.	.	.	.	.	1A	.	.
=66	=66	=66	=66	=66	=66	=66	=66
0r	0F	1c	0a	0r	0r	0r	0r
.	.	1f	.	.	.	.	.
=67	=67	=67	=67	=67	=67	=67	=67
0r	1c	1.e	1g	0r	0r	0r	0r
.	2c	.	2g	.	.	.	.
.	2c	2e	2a	.	.	.	.
=68	=68	=68	=68	=68	=68	=68	=68
0r	2c	2e	2g	0r	0r	0r	0r
.	2A	2e	2cc	.	.	.	.
.	1d	2.f	2b-	.	.	.	.
.	.	.	[2a	.	.	.	.
.	.	4d	.	.	.	.	.
=69	=69	=69	=69	=69	=69	=69	=69
0C	0c	2e	2a]	0r	0r	0r	0r
.	.	2.f	4g	.	.	.	.
.	.	.	4f	.	.	.	.
.	.	.	2g	.	.	.	.
.	.	4e	.	.	.	.	.
.	.	4e	2g	.	.	.	.
.	.	8d	.	.	.	.	.
.	.	8e	.	.	.	.	.
=70	=70	=70	=70	=70	=70	=70	=70
1F	2r	2f	1a	0r	0r	0r	0r
.	2A	2c	.	.	.	.	.
2F	2c	1f	2a	.	.	.	.
2F	2d	.	2a	.	.	.	.
=71	=71	=71	=71	=71	=71	=71	=71
2F	2c	2.f	2a	0r	0r	0r	0r
2D	1d	.	2a	.	.	.	.
.	.	4e	.	.	.	.	.
1G	.	2d	1b-	.	.	.	.
.	4c	2e	.	.	.	.	.
.	4B-	.	.	.	.	.	.
=72	=72	=72	=72	=72	=72	=72	=72
2.F	4c	2f	2a	0r	0r	0r	0r
.	4B-	.	.	.	.	.	.
.	4A	2c	2cc	.	.	.	.
4E	4G	.	.	.	.	.	.
4D	1F	2d	2b-	.	.	.	.
4C	.	.	.	.	.	.	.
2D	.	[2f	[2a	.	.	.	.
=73	=73	=73	=73	=73	=73	=73	=73
1C	1c	2f]	2a]	0r	0r	0r	0r
.	.	2e	2g	.	.	.	.
1r	1r	4d	4f	.	.	.	.
.	.	4c	4g	.	.	.	.
.	.	[2f	4a	.	.	.	.
.	.	.	4f	.	.	.	.
=74	=74	=74	=74	=74	=74	=74	=74
1C	1c	2f]	2g	0r	0r	0r	0r
.	.	2e	2g	.	.	.	.
2D	2B-	1f	1r	.	.	.	.
[2F	[2A	.	.	.	.	.	.
=75	=75	=75	=75	=75	=75	=75	=75
2F]	2A]	2r	1cc	0r	0r	0r	0r
2E	2G	2c	.	.	.	.	.
1D	4F	2d	2b-	.	.	.	.
.	4G	.	.	.	.	.	.
.	4A	[2f	[2a	.	.	.	.
.	4B-	.	.	.	.	.	.
=76	=76	=76	=76	=76	=76	=76	=76
1C	2.c	2f]	2a]	0r	0r	0r	0r
.	.	2e	2g	.	.	.	.
.	4B-	.	.	.	.	.	.
1D	4A	4d	4f	.	.	.	.
.	4G	4e	4e	.	.	.	.
.	2A	2f	4d	.	.	.	.
.	.	.	4c	.	.	.	.
=77	=77	=77	=77	=77	=77	=77	=77
1BB-	2.B-	4f	4d	1r	1r	0r	1f
.	.	4e	4e	.	.	.	.
.	.	2d	1f	.	.	.	.
.	4A	.	.	.	.	.	.
1C	1G	[1c	.	1C	2r	.	1cc
.	.	.	2e	.	2c	.	.
=78	=78	=78	=78	=78	=78	=78	=78
1FF	1F	1c]	1f	1F	1A	1c	2cc
.	.	.	.	.	.	.	2cc
1r	1r	1r	1r	2F	2A	1f	1cc
.	.	.	.	2F	2A	.	.
=79	=79	=79	=79	=79	=79	=79	=79
0r	0r	0r	0r	2F	2c	2f	1a
.	.	.	.	2D	2d	2f	.
.	.	.	.	1G	1B-	2d	1b-
.	.	.	.	.	.	2e	.
=80	=80	=80	=80	=80	=80	=80	=80
0r	0r	0r	0r	1F	1c	1f	1a
.	.	.	.	[1BB-	[1d	2f	[1b-
.	.	.	.	.	.	[2f	.
=81	=81	=81	=81	=81	=81	=81	=81
1r	1r	1r	1r	2BB-]	2d]	2f]	2b-]
.	.	.	.	2BB-	2d	2f	2b-
2r	2r	2r	2r	[1BB-	2.d	2.f	2.b-
[2BB-	[2d	[2f	[2b-	.	.	.	.
.	.	.	.	.	4c	4e	4cc
=82	=82	=82	=82	=82	=82	=82	=82
2BB-]	2d]	2f]	2b-]	1BB-]	1B-	2.d	1dd
2BB-	2d	2f	2b-	.	.	.	.
.	.	.	.	.	.	4c	.
[1BB-	[1d	[1f	[1b-	2r	2r	2B-	2r
.	.	.	.	[2BB-	[2B-	[2f	[2dd
=83	=83	=83	=83	=83	=83	=83	=83
1BB-]	1d]	1f]	1b-]	2BB-]	2B-]	2f]	2dd]
.	.	.	.	2BB-	2B-	2f	2dd
1r	1r	1r	1r	2BB-	2B-	2f	2dd
.	.	.	.	2BB-	2B-	2f	2dd
=84	=84	=84	=84	=84	=84	=84	=84
1.FF	1.c	1.f	1.a	[0F	0A	2f	[0cc
.	.	.	.	.	.	4F	.
.	.	.	.	.	.	4G	.
.	.	.	.	.	.	4A	.
.	.	.	.	.	.	4B-	.
2FF	2c	2f	2a	.	.	2c	.
=85	=85	=85	=85	=85	=85	=85	=85
2FF	2c	2f	2a	1F]	1F	4A	1cc]
.	.	.	.	.	.	4B-	.
2FF	2c	2f	2a	.	.	4c	.
.	.	.	.	.	.	4d	.
1C	2.c	1e	1g	1C	1G	4e	1cc
.	.	.	.	.	.	4f	.
.	.	.	.	.	.	4g	.
.	4B-	.	.	.	.	4e	.
=86	=86	=86	=86	=86	=86	=86	=86
2.FF	2.A	1c	2.a	2r	[0F	2f	2.cc
.	.	.	.	2.F	.	2f	.
4GG	4G	.	4b-	.	.	.	4b-
2AA	2.F	[1f	2cc	.	.	2r	4a
.	.	.	.	4E	.	.	4g
[2BB-	.	.	[2dd	4D	.	[2B-	2f
.	4E	.	.	4C	.	.	.
=87	=87	=87	=87	=87	=87	=87	=87
4BB-]	2D	0f]	4dd]	1BB-	0F]	4B-]	1b-
4C	.	.	4cc	.	.	4A	.
4D	2d	.	1b-	.	.	4F	.
4BB-	.	.	.	.	.	4G	.
1F	1c	.	.	1FF	.	4A	1cc
.	.	.	.	.	.	4F	.
.	.	.	2a	.	.	2f	.
=88	=88	=88	=88	=88	=88	=88	=88
0BB-	0B-	0f	0b-	2r	2r	2d	2dd
.	.	.	.	2BB-	2D	2f	2b-
.	.	.	.	4BB-	1d	1f	1b-
.	.	.	.	4C	.	.	.
.	.	.	.	4D	.	.	.
.	.	.	.	4E	.	.	.
=89	=89	=89	=89	=89	=89	=89	=89
0r	0r	0r	0r	1F	2c	2f	2a
.	.	.	.	.	2A	2c	2cc
.	.	.	.	1D	2.d	2.f	2b-
.	.	.	.	.	.	.	2a
.	.	.	.	.	4c	4e	.
=90	=90	=90	=90	=90	=90	=90	=90
0r	0r	0r	0r	0r	2B	2d	2.g
.	.	.	.	.	2.c	2.e	.
.	.	.	.	.	.	.	4f
.	.	.	.	.	.	.	2g
.	.	.	.	.	4B-	4d	.
.	.	.	.	.	4A	[2f	[2a
.	.	.	.	.	4G	.	.
=91	=91	=91	=91	=91	=91	=91	=91
0r	0r	0r	0r	0r	2F	4f]	2a]
.	.	.	.	.	.	4e	.
.	.	.	.	.	2G	1d	4g
.	.	.	.	.	.	.	4f
.	.	.	.	.	1A	.	1e
.	.	.	.	.	.	2c#	.
=92	=92	=92	=92	=92	=92	=92	=92
0r	0r	0r	0r	2r	2r	2d	2d
.	.	.	.	1BB-	1B-	1f	1dd
.	.	.	.	2AA	2c	2f	2cc
=93	=93	=93	=93	=93	=93	=93	=93
0r	0r	0r	0r	4BB-	1d	1f	1b-
.	.	.	.	4C	.	.	.
.	.	.	.	4D	.	.	.
.	.	.	.	4E	.	.	.
.	.	.	.	4F	2c	1f	2a
.	.	.	.	4G	.	.	.
.	.	.	.	2A	4F	.	[2cc
.	.	.	.	.	4G	.	.
=94	=94	=94	=94	=94	=94	=94	=94
0r	0r	0r	0r	1F	4A	2.f	4cc]
.	.	.	.	.	4B-	.	4b-
.	.	.	.	.	4c	.	2a
.	.	.	.	.	4A	4e	.
.	.	.	.	2G	2B	2d	2g
.	.	.	.	2A	[2c	2c	2f
=95	=95	=95	=95	=95	=95	=95	=95
0r	0r	0r	0r	0G	2c]	0d	0g
.	.	.	.	.	4B	.	.
.	.	.	.	.	4A	.	.
.	.	.	.	.	1B	.	.
=96	=96	=96	=96	=96	=96	=96	=96
2r	2r	2r	2r	1C	1c	1e	1g
1C	1c	1e	1g	.	.	.	.
.	.	.	.	1r	1r	1r	1r
2C	2c	2e	2g	.	.	.	.
=97	=97	=97	=97	=97	=97	=97	=97
1C	1.c	1.e	2g	0r	0r	0r	0r
.	.	.	2a	.	.	.	.
1r	.	.	2g	.	.	.	.
.	2d	2f	2f	.	.	.	.
=98	=98	=98	=98	=98	=98	=98	=98
2r	2c	2e	1g	0r	0r	0r	0r
2G	2B-	2d	.	.	.	.	.
2F	2.c	2f	2a	.	.	.	.
2E	.	2g	[2cc	.	.	.	.
.	4B-	.	.	.	.	.	.
=99	=99	=99	=99	=99	=99	=99	=99
0F	4A	1.f	4cc]	0r	0r	0r	0r
.	4G	.	4b-	.	.	.	.
.	4A	.	4a	.	.	.	.
.	4B-	.	4g	.	.	.	.
.	1c	.	1a	.	.	.	.
.	.	4e	.	.	.	.	.
.	.	4d	.	.	.	.	.
=100	=100	=100	=100	=100	=100	=100	=100
1C	1c	1e	1g	2r	2r	2r	2r
.	.	.	.	2C	2c	2e	2g
1r	1r	1r	1r	2BB-	2d	2f	2b-
.	.	.	.	2AA	2c	2f	2cc
=101	=101	=101	=101	=101	=101	=101	=101
0r	0r	0r	0r	1.BB-	2.B-	4f	4dd
.	.	.	.	.	.	4e	4cc
.	.	.	.	.	.	4d	4b-
.	.	.	.	.	4F	4c	4a
.	.	.	.	.	[1F	2d	2b-
.	.	.	.	2FF	.	2c	2a
=102	=102	=102	=102	=102	=102	=102	=102
2r	2r	2r	2r	0FF	0F]	0c	0a
2F	2A	2f	2cc	.	.	.	.
[1F	4A	1f	4cc	.	.	.	.
.	4G	.	4b-	.	.	.	.
.	4A	.	4a	.	.	.	.
.	4B-	.	4g	.	.	.	.
=103	=103	=103	=103	=103	=103	=103	=103
1F]	1c	2f	1a	0r	0r	0r	0r
.	.	4c	.	.	.	.	.
.	.	4d	.	.	.	.	.
1C	[1c	4e	2g	.	.	.	.
.	.	4f	.	.	.	.	.
.	.	[2g	4c	.	.	.	.
.	.	.	4d	.	.	.	.
=104	=104	=104	=104	=104	=104	=104	=104
4C	1c]	4g]	4e	0r	0r	0r	0r
4D	.	4f	4f	.	.	.	.
4E	.	2e	4g	.	.	.	.
4F	.	.	4a	.	.	.	.
4G	2r	[1d	4b-	.	.	.	.
4A	.	.	4cc	.	.	.	.
2B-	2G	.	[2dd	.	.	.	.
=105	=105	=105	=105	=105	=105	=105	=105
2G	2B-	2d]	2dd]	0r	0r	0r	0r
2A	2c	2f	1cc	.	.	.	.
1G	1d	2.g	.	.	.	.	.
.	.	.	2b	.	.	.	.
.	.	4f	.	.	.	.	.
=106	=106	=106	=106	=106	=106	=106	=106
1C	1c	1e	1cc	0r	0r	0r	0r
1r	1r	1r	1r	.	.	.	.
=107	=107	=107	=107	=107	=107	=107	=107
0F	0c	0f	0a	0FF	2.F	2.A	0cc
.	.	.	.	.	4G	4B-	.
.	.	.	.	.	4A	2c	.
.	.	.	.	.	4B-	.	.
.	.	.	.	.	2c	[2f	.
=108	=108	=108	=108	=108	=108	=108	=108
2D	2.B-	0f	0b-	0BB-	1F	4f]	0dd
.	.	.	.	.	.	4e	.
2.BB-	.	.	.	.	.	4d	.
.	4c	.	.	.	.	4c	.
.	2d	.	.	.	2.F	2B-	.
4C	.	.	.	.	.	.	.
4D	2B-	.	.	.	.	[2F	.
4BB-	.	.	.	.	4G	.	.
=109	=109	=109	=109	=109	=109	=109	=109
0F	0c	0f	0a	0FF	4A	4F]	0cc
.	.	.	.	.	4B-	4G	.
.	.	.	.	.	4c	4A	.
.	.	.	.	.	4B-	4B-	.
.	.	.	.	.	4A	2c	.
.	.	.	.	.	4G	.	.
.	.	.	.	.	2F	4A	.
.	.	.	.	.	.	4B-	.
=110	=110	=110	=110	=110	=110	=110	=110
0C	0c	0e	0g	1C	4G	4c	1cc
.	.	.	.	.	4F	4d	.
.	.	.	.	.	4E	4e	.
.	.	.	.	.	4D	4f	.
.	.	.	.	2r	2C	2g	2r
.	.	.	.	2C	2c	2e	2g
=111	=111	=111	=111	=111	=111	=111	=111
0r	0r	0r	0r	1F	1c	1f	1a
.	.	.	.	2F	2c	1f	2a
.	.	.	.	4BB-	[2d	.	[2b-
.	.	.	.	4C	.	.	.
=112	=112	=112	=112	=112	=112	=112	=112
1r	1r	1r	1r	4D	2d]	1.f	2b-]
.	.	.	.	4E	.	.	.
.	.	.	.	1F	4c	.	4a
.	.	.	.	.	4B-	.	4g
2r	2r	2r	2r	.	2A	.	2a
2GG	2G	2d	2g	2G	2G	2d	2b
=113	=113	=113	=113	=113	=113	=113	=113
1C	2.E	1c	1g	1C	1G	1e	1cc
.	8D	.	.	.	.	.	.
.	8C	.	.	.	.	.	.
2C	[1c	2e	2g	1r	1r	1r	1r
4FF	.	[2f	[2a	.	.	.	.
4GG	.	.	.	.	.	.	.
=114	=114	=114	=114	=114	=114	=114	=114
4AA	1c]	2f]	2a]	0r	0r	0r	0r
4BB-	.	.	.	.	.	.	.
1C	.	4e	4g	.	.	.	.
.	.	4d	4f	.	.	.	.
.	2c	2e	2g	.	.	.	.
2FF	2c	2f	2a	.	.	.	.
=115	=115	=115	=115	=115	=115	=115	=115
1BB-	1d	1f	1b-	2r	2r	2r	2r
.	.	.	.	2BB-	2B-	2f	2dd
1r	1r	1r	1r	2BB-	2B-	2f	2dd
.	.	.	.	2BB-	2B-	2f	2dd
=116	=116	=116	=116	=116	=116	=116	=116
0r	0r	0r	0r	1F	2A	1f	4cc
.	.	.	.	.	.	.	4b-
.	.	.	.	.	4c	.	4a
.	.	.	.	.	4B-	.	4g
.	.	.	.	1F	4A	1c	2f
.	.	.	.	.	4G	.	.
.	.	.	.	.	2F	.	2a
=117	=117	=117	=117	=117	=117	=117	=117
0r	0r	0r	0r	2E	2G	1c	2g
.	.	.	.	2F	2A	.	2f
.	.	.	.	2.C	2G	2.g	2.e
.	.	.	.	.	[2c	.	.
.	.	.	.	4D	.	4f	4f
=118	=118	=118	=118	=118	=118	=118	=118
0r	0r	0r	0r	2E	4c]	4e	2g
.	.	.	.	.	4B-	4d	.
.	.	.	.	2.F	4A	2c	2.a
.	.	.	.	.	4G	.	.
.	.	.	.	.	2F	2c	.
.	.	.	.	4E	.	.	4g
.	.	.	.	4D	[2B-	[2d	4f
.	.	.	.	4C	.	.	4e
=119	=119	=119	=119	=119	=119	=119	=119
0r	0r	0r	0r	4BB-	4B-]	4d]	4d
.	.	.	.	4C	4A	4c	4e
.	.	.	.	2D	2F	4A	1f
.	.	.	.	.	.	4B-	.
.	.	.	.	1C	1G	1c	.
.	.	.	.	.	.	.	2e
=120	=120	=120	=120	=120	=120	=120	=120
2r	2r	2r	2r	1BB-	1B-	1d	1f
2BB-	2B-	2f	2dd	.	.	.	.
2BB-	2B-	2f	2dd	1r	1r	1r	1r
2BB-	2B-	2f	2dd	.	.	.	.
=121	=121	=121	=121	=121	=121	=121	=121
1F	2A	1f	4cc	0r	0r	0r	0r
.	.	.	4b-	.	.	.	.
.	4c	.	4a	.	.	.	.
.	4B-	.	4g	.	.	.	.
1F	4A	1c	2f	.	.	.	.
.	4G	.	.	.	.	.	.
.	2F	.	2a	.	.	.	.
=122	=122	=122	=122	=122	=122	=122	=122
2E	2G	1c	2g	0r	0r	0r	0r
2F	2A	.	2f	.	.	.	.
2.C	2G	2.g	2.e	.	.	.	.
.	[2c	.	.	.	.	.	.
4D	.	4f	4f	.	.	.	.
=123	=123	=123	=123	=123	=123	=123	=123
2E	4c]	4e	2g	0r	0r	0r	0r
.	4B-	4d	.	.	.	.	.
2.F	4A	2c	2.a	.	.	.	.
.	4G	.	.	.	.	.	.
.	2A	2c	.	.	.	.	.
4E	.	.	4g	.	.	.	.
4D	[2B-	[2d	4f	.	.	.	.
4C	.	.	4e	.	.	.	.
=124	=124	=124	=124	=124	=124	=124	=124
4BB-	4B-]	4d]	4d	0r	0r	0r	0r
4C	4A	4c	4e	.	.	.	.
2D	2F	4A	1f	.	.	.	.
.	.	4B-	.	.	.	.	.
1C	1G	1c	.	.	.	.	.
.	.	.	2e	.	.	.	.
=125	=125	=125	=125	=125	=125	=125	=125
1BB-	1B-	1d	1f	2r	2r	2r	2r
.	.	.	.	2BB-	2B-	2f	2dd
1r	1r	1r	1r	2BB-	2B-	2f	2dd
.	.	.	.	2BB-	2B-	2f	2dd
=126	=126	=126	=126	=126	=126	=126	=126
2r	2r	2r	2r	1F	2A	1f	4cc
.	.	.	.	.	.	.	4b-
2FF	2c	2f	2a	.	4c	.	4a
.	.	.	.	.	4B-	.	4g
2FF	2c	2f	2a	1F	4A	1c	2f
.	.	.	.	.	4G	.	.
2FF	2c	2f	2a	.	2F	.	4c
.	.	.	.	.	.	.	4d
=127	=127	=127	=127	=127	=127	=127	=127
1C	1c	1e	4g	0C	0G	4c	4e
.	.	.	4f	.	.	4d	4f
.	.	.	4e	.	.	4e	1g
.	.	.	4d	.	.	4f	.
1C	1c	1e	2c	.	.	2g	.
.	.	.	4g	.	.	2c	4e
.	.	.	4a	.	.	.	4f
=128	=128	=128	=128	=128	=128	=128	=128
0GG	2B-	0d	4b-	0G	2r	2d	4g
.	.	.	4cc	.	.	.	4a
.	2.B-	.	2dd	.	4G	2.g	4b-
.	.	.	.	.	4A	.	4cc
.	.	.	4g	.	4B-	.	2dd
.	4A	.	4a	.	4c	4f	.
.	2G	.	4b-	.	[2B-	[2d	[2dd
.	.	.	4cc	.	.	.	.
=129	=129	=129	=129	=129	=129	=129	=129
1BB-	0F	1B-	1dd	1D	4B-]	4d]	4dd]
.	.	.	.	.	4A	4e	4cc
.	.	.	.	.	2F	2.f	2b-
1FF	.	1c	2cc	1F	2A	.	1a
.	.	.	.	.	.	4c	.
.	.	.	2a	.	[2c	[2f	.
=130	=130	=130	=130	=130	=130	=130	=130
0C	0G	0c	1g	0C	2c]	2f]	0cc
.	.	.	.	.	4B-	4e	.
.	.	.	.	.	4A	4d	.
.	.	.	1cc	.	1G	1e	.
=131	=131	=131	=131	=131	=131	=131	=131
0FF	0F	0c	0cc	0F	0A	0f	0cc
==	==	==	==	==	==	==	==
*-	*-	*-	*-	*-	*-	*-	*-
!!!CDT: 1525/^1526/-1594/2/2
!!!OCY: Italia
!!!AGN: Mass (Parody)
!!!AST: renaissance, vocal
!!!ASW: Motet 1572 (Palestrina)
!!!PWK: Masses, Book 8vce
!!!RNB: Cadence finals: C
!!!YOR: Le Opere Complete, v. 30, p. 1
!!!YOO: Rome, Italy: Fratelli Scalera
!!!END: 1992//
!!!EED: John Miller
!!!YEC: Copyright 2000, John Miller
!!!YEN: United States of America
!!!YEM: Rights to all derivative electronic formats reserved.
!!!YEM: Refer to licensing agreement for further details.
!!!YEM: This file must be accompanied by the licensing agreement.
!!!YEM: A copy of the licensing agreement may be found at http://www.music-cog.ohio-state.edu/HumdrumDatabases/Palestrina/license.txt
!!!EMD: converted to Humdrum by Bret Aarden
